dist/svg/icons/tools.svg

<svg xmlns="http://www.w3.org/2000/svg" width="16" height="16" viewBox="0 0 16 16"><path d="M4.48 7.27c.26.26 1.28 1.33 1.28 1.33l.56-.58-.88-.91 1.69-1.8s-.76-.74-.43-.45c.32-1.19.03-2.51-.87-3.44C4.93.5 3.66.2 2.52.51l1.93 2-.51 1.96-1.89.52-1.93-2C-.19 4.17.1 5.48 1 6.4c.94.98 2.29 1.26 3.48.87zm6.44 1.94l-2.33 2.3 3.84 3.98c.31.33.73.49 1.14.49.41 0 .82-.16 1.14-.49.63-.65.63-1.7 0-2.35l-3.79-3.93zM16 2.53L13.55 0 6.33 7.46l.88.91-4.31 4.46-.99.53-1.39 2.27.35.37 2.2-1.44.51-1.02L7.9 9.08l.88.91L16 2.53z"/></svg>

<svg height="16" width="16" xmlns="http://www.w3.org/2000/svg" viewBox="0 0 16 16">
  <path d="M4.48 7.27c0.26 0.26 1.28 1.33 1.28 1.33l0.56-0.58-0.88-0.91L7.13 5.31c0 0-0.76-0.74-0.43-0.45 0.32-1.19 0.03-2.51-0.87-3.44C4.93 0.5 3.66 0.2 2.52 0.51l1.93 2-0.51 1.96-1.89 0.52L0.12 2.99c-0.31 1.18-0.02 2.49 0.88 3.41C1.94 7.38 3.29 7.66 4.48 7.27zM10.92 9.21L8.59 11.51l3.84 3.98c0.31 0.33 0.73 0.49 1.14 0.49 0.41 0 0.82-0.16 1.14-0.49 0.63-0.65 0.63-1.7 0-2.35L10.92 9.21zM16 2.53L13.55 0 6.33 7.46l0.88 0.91L2.9 12.83l-0.99 0.53-1.39 2.27 0.35 0.37 2.2-1.44 0.51-1.02 4.32-4.46 0.88 0.91L16 2.53z" />
</svg>
